X:332
T:The Hop-pickers' Feast
C:Thompson, 1786
S:Colin Hume's website,  colinhume.com  - chords can also be printed below the stave.
Q:1/2=120
M:2/2
L:1/8
K:D
P:A
|: A2 | "D"d2A2 f2d2 | "/"a4 gfed | "Em"g4 "A7"fedc | "D"dcde d2A2 |\
"D"d2A2 f2d2 | "Bm"a4 gfed | "Em"g4 "A7"fedc | "D"d6 :|
P:B
|: cd | "A"e2 z2 "D7"f2 z2 | "Em"g3f e2f2 | "G"gagf "Em"efed | "A"cdcB A2A2 |\
"A"e2e2 "D7"f2f2 | "Em"g3f e2g2 | "D"f2a2 "E7"f2d2 | "A"a6A2 |
"D"d2A2 f2d2 | "/"a4 gfed | "Em"g4 "A7"fedc | "D"dcde d2A2 |\
"D"d2A2 "D7"f2d2 | "B7"a4 gfed | "Em"g4 "A7"fedc | "D"d6 :|
